X: 4857
T:Ships Are Sailing
M:C|
L:1/8
S:New England Fiddler's Repertoire  tune #81
N:Chords are from the Chord Encyclopedia by Ryan Thompson
K:D
"Em"Beed BcdB|"D"A2FD ADFD|"Em"E^DEF GFGA|Beef gfed|!
Beed BcdB|"D"AD (3FED ADFD|"Em"E^DEF GFGA|"D"Bee^d "Em"e4:|!
|:"G"gfga bgeg|"D"fefg afdf|"Em"gfga bgeg|"D"afdf "Em"e2ef|!
"G"gfga bgeg|"D"fefg afdf|g2bg "G"f2af|"Em"edef gfed:|!
